img/active.svg

<svg width="302" height="76" viewBox="0 0 302 76" fill="none" xmlns="http://www.w3.org/2000/svg">
<defs>
  <mask id="msk1">
    <g transform="translate(0, 76)">
       <animateTransform
          attributeName="transform"
          values="0 76; 0 0"            
          keySplines="0.33, 0, 0.67, 1"
          type="translate"
          fill="freeze"
          repeatCount="1"
          dur="0.5s"/>
      <rect width="302" fill="white" height="76" id="mask"/>
    </g>
  </mask>
</defs>
<path mask="url(#msk1)" d="M18.3864 75L22.9886 60.3409H47.0909L51.6932 75H69.8295L46.2727 5.18182H23.8068L0.25 75H18.3864ZM27.0114 47.5227L34.75 22.7727H35.2955L43.0682 47.5227H27.0114ZM98.5085 75.9886C113.236 75.9886 122.372 67.4318 122.815 54.4773H107.236C106.622 60.0341 103.281 63.0682 98.7131 63.0682C92.8494 63.0682 89.0312 58.125 89.0312 48.8182C89.0312 39.5795 92.8835 34.6364 98.7131 34.6364C103.486 34.6364 106.588 37.875 107.236 43.2273H122.815C122.44 30.3409 113.031 21.9545 98.4744 21.9545C82.0085 21.9545 72.054 32.9318 72.054 48.9886C72.054 64.9773 81.9403 75.9886 98.5085 75.9886ZM160.903 22.6364H151.46V10.0909H134.79V22.6364H127.869V34.9091H134.79V60.375C134.688 70.9773 141.574 76.2955 153.335 75.75C157.358 75.5455 160.256 74.7273 161.858 74.25L159.335 62.2159C158.619 62.3864 156.949 62.7273 155.688 62.7273C152.994 62.7273 151.46 61.6364 151.46 58.5341V34.9091H160.903V22.6364ZM169.409 75H186.08V22.6364H169.409V75ZM177.761 16.5341C182.5 16.5341 186.318 12.9545 186.318 8.55682C186.318 4.15909 182.5 0.613632 177.761 0.613632C173.057 0.613632 169.205 4.15909 169.205 8.55682C169.205 12.9545 173.057 16.5341 177.761 16.5341ZM247.486 22.6364H229.929L220.247 58.7045H219.702L210.054 22.6364H192.497L210.429 75H229.52L247.486 22.6364ZM276.668 75.9886C290.406 75.9886 299.44 69.3409 301.349 59.0455L286.043 58.6023C284.747 62.0795 281.338 63.9545 276.974 63.9545C270.565 63.9545 266.611 59.6932 266.611 53.2841V52.8409H301.52V48.6818C301.52 31.4318 291.02 21.9545 276.156 21.9545C260.338 21.9545 250.179 32.7955 250.179 49.0227C250.179 65.7955 260.202 75.9886 276.668 75.9886ZM266.611 43.1591C266.849 37.9432 270.974 33.9886 276.497 33.9886C281.986 33.9886 285.94 37.8068 286.009 43.1591H266.611Z" fill="#2C2C2C"/>
</svg>

<svg width="302" height="76" viewBox="0 0 302 76" fill="none" xmlns="http://www.w3.org/2000/svg"><defs><mask id="msk1"><g transform="translate(0 76)"><animateTransform attributeName="transform" values="0 76; 0 0" keySplines="0.33, 0, 0.67, 1" type="translate" fill="freeze" repeatCount="1" dur="0.5s"/><path fill="#fff" id="mask" d="M0 0h302v76H0z"/></g></mask></defs><path mask="url(#msk1)" d="M18.386 75l4.603-14.66H47.09L51.693 75H69.83L46.273 5.182H23.807L.25 75h18.136zm8.625-27.477l7.739-24.75h.545l7.773 24.75H27.011zM98.51 75.989c14.727 0 23.863-8.557 24.306-21.512h-15.579c-.614 5.557-3.955 8.591-8.523 8.591-5.864 0-9.682-4.943-9.682-14.25 0-9.238 3.852-14.182 9.682-14.182 4.773 0 7.875 3.239 8.523 8.591h15.579c-.375-12.886-9.784-21.272-24.34-21.272-16.466 0-26.421 10.977-26.421 27.034 0 15.988 9.886 27 26.454 27zm62.394-53.353h-9.443V10.091h-16.67v12.545h-6.921V34.91h6.921v25.466c-.102 10.602 6.784 15.92 18.545 15.375 4.023-.204 6.921-1.023 8.523-1.5l-2.523-12.034c-.716.17-2.386.511-3.647.511-2.694 0-4.228-1.09-4.228-4.193V34.91h9.443V22.636zM169.409 75h16.671V22.636h-16.671V75zm8.352-58.466c4.739 0 8.557-3.58 8.557-7.977 0-4.398-3.818-7.943-8.557-7.943-4.704 0-8.556 3.545-8.556 7.943 0 4.397 3.852 7.977 8.556 7.977zm69.725 6.102h-17.557l-9.682 36.069h-.545l-9.648-36.069h-17.557L210.429 75h19.091l17.966-52.364zm29.182 53.353c13.738 0 22.772-6.648 24.681-16.944l-15.306-.443c-1.296 3.478-4.705 5.353-9.069 5.353-6.409 0-10.363-4.262-10.363-10.67v-.444h34.909v-4.16c0-17.25-10.5-26.726-25.364-26.726-15.818 0-25.977 10.84-25.977 27.068 0 16.773 10.023 26.966 26.489 26.966zm-10.057-32.83c.238-5.216 4.363-9.17 9.886-9.17 5.489 0 9.443 3.818 9.512 9.17h-19.398z" fill="#2C2C2C"/></svg>
